modules/material-icons/icons/google-earth.svg

<svg xmlns="http://www.w3.org/2000/svg" width="24" height="24"><path d="M12.4 7.56C9.6 4.91 7.3 5.65 6.31 6.1c.75-.72 1.63-1.3 2.61-1.7 2.78-.1 5.91.44 7.64 2.91 0 0 2.44 4.19 3.3 2.34.22.75.34 1.53.34 2.35 0 .3-.02.59-.05.88-2.03-.23-4.82-2.56-7.75-5.32m6.7 8.54c-.94.37-2.1 1-3.96 1-1.88 0-3.53-.75-5.58-1.4-1.86-.59-2.56-1.5-3.84-1.5-.66 0-.99.66-1.17 1.21a8.1 8.1 0 0 1-.41-5.73c1.26-1.58 3.19-2.56 5.95-.42 0 0 6.23 4.66 9.79 4.97-.18.66-.45 1.27-.78 1.87M12 20.2c-1.12 0-2.19-.23-3.17-.64-.62-1.48-.61-2.64 1.12-2.06 0 0 3.92 1.5 8.05.08a8.175 8.175 0 0 1-6 2.62M12 2C6.48 2 2 6.48 2 12s4.48 10 10 10 10-4.48 10-10c0-5.53-4.5-10-10-10z"/></svg>

<?xml version="1.0" encoding="UTF-8"?><!DOCTYPE svg PUBLIC "-//W3C//DTD SVG 1.1//EN" "http://www.w3.org/Graphics/SVG/1.1/DTD/svg11.dtd"><svg xmlns="http://www.w3.org/2000/svg" xmlns:xlink="http://www.w3.org/1999/xlink" version="1.1" width="24" height="24" viewBox="0 0 24 24"><path d="M12.4,7.56C9.6,4.91 7.3,5.65 6.31,6.1C7.06,5.38 7.94,4.8 8.92,4.4C11.7,4.3 14.83,4.84 16.56,7.31C16.56,7.31 19,11.5 19.86,9.65C20.08,10.4 20.2,11.18 20.2,12C20.2,12.3 20.18,12.59 20.15,12.88C18.12,12.65 15.33,10.32 12.4,7.56M19.1,16.1C18.16,16.47 17,17.1 15.14,17.1C13.26,17.1 11.61,16.35 9.56,15.7C7.7,15.11 7,14.2 5.72,14.2C5.06,14.2 4.73,14.86 4.55,15.41C4.07,14.37 3.8,13.22 3.8,12C3.8,11.19 3.92,10.42 4.14,9.68C5.4,8.1 7.33,7.12 10.09,9.26C10.09,9.26 16.32,13.92 19.88,14.23C19.7,14.89 19.43,15.5 19.1,16.1M12,20.2C10.88,20.2 9.81,19.97 8.83,19.56C8.21,18.08 8.22,16.92 9.95,17.5C9.95,17.5 13.87,19 18,17.58C16.5,19.19 14.37,20.2 12,20.2M12,2C6.48,2 2,6.48 2,12C2,17.52 6.48,22 12,22C17.52,22 22,17.52 22,12C22,6.47 17.5,2 12,2Z" /></svg>
